!!!OTL: M&auml;dchen und Jude (257), S. 550
!!!id: T0447
**kern
*clefG2
*k[f#]
*G:
{8d
=1
8g
8g
8g
8a
=2
8g
8e
8d
8d
=3
8e
8e
8f#
8f#
=4
4g}
4r
=5
{4.dd
8cc
=6
8b
8b
8b
8b
=7
8b
8dd
8dd}
=8
{8dd
=9
8dd
8cc
8cc
8cc
=10
8ee
8dd
8dd}
=11
{8b
=12
8b
8b
8b
8b
=13
8b
8dd
8dd}
=14
{8dd
=15
8dd
8cc
8cc
8cc
=16
4b}
8r
==
*-
!!!minrhy: 8
!!!meters: 2/4 ]  ZZ[5
!!!cut: M&auml;dchen und Jude (257), S. 550
!!!reg: Luxemburg
!!!trd: Singendes Volk, Esch-Alzette, 1937 posth.
!!!rhy1: X  XXXX  XXXX  XXXX  X_0_
!!!rhy2: X_.X  XXXX  XXX
!!!key: T0447  08  G 2/4 ]  ZZ[5
!!!mod: HEPTATONIK IONISCH]  AMBITUS[9
!!!kad: 15553
!!!akz: 11-61_533_56_33_53_
!!!fot: 'a__b__c__as"cw_
!!!for: 'a__b__aw_aw_aw_
!!!fok: '~a_V__-__/__\__
!! PHRAS[VORWIEGEND AUFTAKTIG]
!!!fkt: Scherz-, Spiel-, Spottlied
!!!bem: Rodingen, mitgeteilt: hhh Heinrich Godefroid (Lehrer)
!! THILL; Mathias
!! PR[16] 2K[3] 2G[22] 3K[3] 3G[0] 4A[11] 4Ü[0] 5A[0] 6K[0] 6G[0]
!! 7K[0] 7G[0] 8A[0] MEHR[0] SI[38] ABS[37] SR[24] SP[14]
!! ST[10] 2k[8] 2g[22] 3k[8] 3g[8] 4d[0] 4ü[0] 5d[0] 6k[0] 6g[0]
!! 7k[0] 7g[0] 8d[0] mehr[0] si[46] dm[-8] sr[30] sp[16]
!! 1F[53] 2F[37] 3F[0] 4F[0] LF[0] 2P[11] 3P[0] 4P[0] TRI[0] DF[3] AB[38]
!! TF[0] U3K[0] U3[0] U4[0] U4Ü[0] U5[0] U6K[0] U6[0] U7K[3] U7[0]
!! N1[18] N2K[0] N2[24] N3K[16] N3[0] N4[26] N4Ü[0] N5[13] N6K[0] N6[0]
!!!n7k: 0] N7[0] O1[0] O2K[0] O2[0] O3K[0] O3[0] HÖ[0
!!!RNB: symbol: &auml;      = a umlaut  (UTF-8: Å„)
